X: 2250
M: 6/8
L: 1/8
K: G
|:\
vd2uG BAG | dBG gfe | vd2vG BAG | ABG FED |\
vd2vG BAG | dBG gfe | def gec | BcA G3 :|
|:\


